X: 1
T:Jingle Bells
C:James Pierpont
M:2/4
L:1/8
Q:1/4=120
K:D
|"D"A,F ED|A,3 A,/2A,/2|A,F ED|"G"B,4
w:1Dash-ing through the snow. In a one-horse o-pen sleigh;
w:2Day or two a-go I_ thought I'd take a ride;
w:3Day or two a-go the_ sto-ry I must tell;
w:4Now the ground is white, __go it while you're young,
|"Em"B,G FE|"A7"C3 z1/2 C1/2|AA GE|"D"F3 z1/2 A,1/2
w:o'er the fields we go, and laugh-ing all the way._
w:and~soon Miss Fan-ny Bright, was seat-ed by my side. The
w:I~went out on the snow, and on my back I fell. A
w:take the girls to-night, and sing a sleigh-ing song. Just
|A,F ED|A,3 z1/2 A,1/2|A,F ED|"G"B,3 z1/2 B,1/2
w:Bells on bob-tail ring, _mak-ing spir-its bright; what
w:horse was lean and lank, mis-for-tune seemed his lot; He
w:gent was rid-ing by in~a one horse o-pen sleigh; He
w:get a bob-tail nag, two for-ty for his speed and
|"Em"B,G FE|"D"AA AA|"A7"BA GE|"D"D2 "A7"!Fermata!A2
w:fun it is to ride and sing a sleigh-ing song to night. Oh!
w:ran in-to a drift-ed bank and there we got up-set. Oh!
w:laughed at me as I there laid but quick-ly drove a-way. Oh!
w:hitch him to an op-en sleigh and crack, you'll take the lead! Oh!
|"D"FF F2|FF F2|FA D3/2E/2|F4
w:Jin-gle bells, jin-gle bells, jin-gle all the way;
|"G"GG G3/2G/2|"D"GF FF/2F/2|"E7"FE EF|"A7"E2 A2
w:oh what fun it is to ride in a one-horse o-pen sleigh. Hey!
|"D"FF F2|FF F2|FA D3/2E/2|A4
w:Jin-gle bells, jin-gle bells, jin-gle all the way;
|"G"GG G3/2G/2|"D"GF FF/2F/2|"A7"AA GE|"D"D2 z2||
w:oh what fun it is to ride in a one horse o-pen sleigh!
